X:3527
L:1/8
M:4/4
K:C
[M:4/4][K:Emin] ave bee abe!p! a e e e ue e a acbg e e[Q:1/8=180].g | eB B2 eBdB | AFF/E/F EDB,A, | 
 B,EE/D/E B,EGE | FBB/A/B FBdf | eB B2 eBdB | AFF/E/F EDB,A, | B,EE/D/E EFGA | (3B^cd ef e3 :| f | 
 eB B2 A2 FA | defd edef | dff/e/f dfbf | afdf edef | defd B^cdB | AFF/E/F ABde | fdd^c dfbf | 
 afdf e3 :|

